<?xml version="1.0" encoding="UTF-8"?>
<map version="1.10" tiledversion="1.11.2" orientation="orthogonal" renderorder="right-down" width="30" height="20" tilewidth="64" tileheight="64" infinite="0" nextlayerid="4" nextobjectid="5">
 <editorsettings>
  <export target="leftMap.json" format="json"/>
 </editorsettings>
 <tileset firstgid="1" name="tileset" tilewidth="64" tileheight="64" tilecount="54" columns="9">
  <image source="tileset.png" width="576" height="384"/>
  <tile id="3">
   <objectgroup draworder="index" id="2">
    <object id="1" x="0" y="0.25" width="64" height="23.5"/>
    <object id="2" x="0" y="23.75" width="16" height="40"/>
   </objectgroup>
  </tile>
  <tile id="4">
   <objectgroup draworder="index" id="2">
    <object id="1" x="0.32311" y="0.100765" width="63.9758" height="23.6478"/>
   </objectgroup>
  </tile>
  <tile id="5">
   <objectgroup draworder="index" id="2">
    <object id="1" x="0.181818" y="-0.363636" width="65.0909" height="23.8182"/>
    <object id="2" x="48.1818" y="23.2727" width="15.2727" height="40.5455"/>
   </objectgroup>
  </tile>
  <tile id="12">
   <objectgroup draworder="index" id="2">
    <object id="1" x="-0.25" y="0.125" width="16.25" height="63.875"/>
   </objectgroup>
  </tile>
  <tile id="14">
   <objectgroup draworder="index" id="2">
    <object id="1" x="47.8182" y="-0.181818" width="16.1818" height="64.3636"/>
   </objectgroup>
  </tile>
  <tile id="21">
   <objectgroup draworder="index" id="2">
    <object id="1" x="0.181818" y="0" width="15.6364" height="63.8182"/>
    <object id="2" x="15.8182" y="40" width="48.3636" height="23.6364"/>
   </objectgroup>
  </tile>
  <tile id="22">
   <objectgroup draworder="index" id="2">
    <object id="1" x="-0.295455" y="40.25" width="64.0455" height="23.5"/>
   </objectgroup>
  </tile>
  <tile id="23">
   <objectgroup draworder="index" id="2">
    <object id="1" x="0" y="40" width="64.1818" height="23.6364"/>
    <object id="2" x="47.8182" y="0" width="17.4545" height="40.3636"/>
   </objectgroup>
  </tile>
  <tile id="44">
   <objectgroup draworder="index" id="2">
    <object id="1" x="12" y="4" width="40" height="56"/>
    <object id="2" x="12" y="3.81818" width="40" height="56"/>
   </objectgroup>
  </tile>
 </tileset>
 <layer id="1" name="background" width="30" height="20">
  <data encoding="csv">
11,11,11,11,11,11,11,11,11,11,11,11,11,11,11,11,11,11,11,11,11,11,11,11,11,11,11,11,11,11,
11,11,11,11,11,11,11,11,11,11,11,11,11,11,11,11,11,11,11,11,11,11,11,11,11,11,11,11,11,11,
11,11,11,11,11,11,11,11,11,11,11,11,11,11,11,11,11,11,11,11,11,11,11,11,11,11,11,11,11,11,
11,11,4,5,5,5,5,5,5,5,6,11,11,11,11,11,11,11,11,11,11,11,11,11,11,11,11,11,11,11,
11,11,13,14,14,14,14,14,14,14,15,11,11,11,11,11,11,11,11,11,11,11,11,11,11,11,11,11,11,11,
11,11,13,14,14,14,14,14,14,14,15,11,11,11,11,11,11,11,11,11,11,11,11,11,11,11,11,11,11,11,
11,11,13,14,14,14,14,14,14,14,38,38,38,38,11,11,11,11,11,11,11,11,11,11,11,11,11,11,11,11,
11,11,13,14,14,14,14,14,14,14,38,38,38,38,11,11,11,11,11,11,11,11,11,11,11,11,11,11,11,11,
11,11,13,14,14,14,14,14,14,14,15,11,11,38,38,38,11,11,11,11,11,11,11,11,11,11,11,11,11,11,
11,11,22,23,23,23,23,23,23,23,24,11,11,38,38,38,11,11,11,11,11,11,11,11,11,11,11,11,11,11,
11,11,11,11,11,11,11,11,11,11,11,11,11,38,38,38,38,11,11,11,11,11,11,11,11,11,11,11,11,11,
11,11,11,11,11,11,11,11,11,11,11,11,11,11,38,38,38,11,11,11,11,11,11,11,11,11,11,11,11,11,
11,11,11,11,11,11,11,11,11,11,11,11,11,11,11,38,38,38,11,11,11,11,11,11,11,11,11,11,11,11,
11,11,11,11,11,11,11,11,11,11,11,11,11,11,11,38,38,38,11,11,11,11,11,11,11,11,11,11,11,11,
11,11,11,11,11,11,11,11,11,11,11,11,11,11,11,11,38,38,38,11,11,11,11,11,11,11,11,11,11,11,
11,11,11,11,11,11,11,11,11,11,11,11,11,11,11,11,38,38,38,38,11,11,11,11,11,11,11,11,11,11,
11,11,11,11,11,11,11,11,11,11,11,11,11,11,11,11,11,38,38,38,38,38,38,38,38,38,38,38,38,38,
11,11,11,11,11,11,11,11,11,11,11,11,11,11,11,11,11,38,38,38,38,38,38,38,38,38,38,38,38,38,
11,11,11,11,11,11,11,11,11,11,11,11,11,11,11,11,11,11,11,11,11,11,11,11,11,11,11,11,11,11,
11,11,11,11,11,11,11,11,11,11,11,11,11,11,11,11,11,11,11,11,11,11,11,11,11,11,11,11,11,11
</data>
 </layer>
 <layer id="3" name="trees" width="30" height="20">
  <data encoding="csv">
45,0,0,0,0,0,0,0,0,0,0,0,0,0,0,0,0,0,0,0,0,0,0,0,0,0,0,0,0,0,
0,0,0,0,0,0,0,0,0,0,0,45,0,0,0,0,0,0,0,0,0,0,0,0,0,0,0,0,0,0,
0,0,0,0,0,0,0,0,0,0,0,0,0,0,0,0,0,0,0,0,0,45,0,0,0,0,0,0,0,0,
0,0,0,0,0,0,0,0,0,0,0,0,0,0,0,0,0,0,0,0,0,0,0,0,0,0,0,0,0,0,
0,0,0,0,0,0,0,0,0,0,0,0,0,0,0,45,0,0,0,0,0,0,0,0,0,0,0,0,0,0,
0,0,0,0,0,0,0,0,0,0,0,0,0,0,0,0,0,0,0,0,0,0,0,0,0,0,0,0,0,0,
0,0,0,0,0,0,0,0,0,0,0,0,0,0,0,0,0,0,45,0,0,0,0,0,0,45,0,0,0,0,
0,0,0,0,0,0,0,0,0,0,0,0,0,0,0,0,0,0,0,0,0,0,0,0,0,0,45,45,0,0,
0,0,0,0,0,0,0,0,0,0,0,0,0,0,0,0,0,0,0,0,0,0,0,0,0,0,0,0,0,0,
0,0,0,0,0,0,0,0,0,0,0,0,0,0,0,0,0,0,0,0,45,0,0,0,0,0,0,0,0,0,
0,45,0,0,0,0,0,0,0,0,0,0,0,0,0,0,0,0,0,0,0,0,0,0,0,0,0,0,0,0,
0,0,0,0,0,0,0,0,45,0,0,0,0,0,0,0,0,0,0,0,0,0,0,45,0,0,0,0,0,0,
0,0,0,45,0,0,0,0,0,0,0,0,0,0,0,0,0,0,0,0,0,0,0,0,0,0,0,0,0,0,
0,0,0,0,0,0,0,0,45,0,0,0,0,0,0,0,0,0,0,0,0,0,0,0,0,0,0,45,0,0,
0,0,0,45,0,0,0,0,0,0,0,0,0,0,0,0,0,0,0,0,45,0,0,0,0,0,0,0,0,0,
0,0,0,0,0,0,0,0,0,0,0,45,0,0,0,0,0,0,0,0,0,0,0,0,0,0,0,0,0,0,
0,45,0,0,0,0,0,0,0,0,0,0,0,0,0,0,0,0,0,0,0,0,0,0,0,0,0,0,0,0,
0,0,0,0,0,0,0,0,0,0,0,0,0,45,45,0,0,0,0,0,0,0,0,0,0,0,0,0,0,0,
0,0,0,0,0,45,0,0,0,0,0,0,0,0,0,0,0,0,0,0,0,0,0,0,0,0,0,0,0,0,
0,0,0,0,0,0,0,0,0,0,0,0,0,0,0,0,0,0,0,0,0,0,0,0,0,0,0,0,0,0
</data>
 </layer>
 <objectgroup id="2" name="spawn">
  <object id="1" name="player_spawn" type="spawnpoint" x="1827.27" y="1057.58">
   <point/>
  </object>
  <object id="4" name="map" type="teleport" x="1902" y="1022" width="17" height="130">
   <properties>
    <property name="side" value="right"/>
   </properties>
  </object>
 </objectgroup>
</map>
