<?xml version="1.0" encoding="UTF-8"?>
<map version="1.10" tiledversion="1.11.2" orientation="orthogonal" renderorder="right-down" width="30" height="20" tilewidth="64" tileheight="64" infinite="0" nextlayerid="6" nextobjectid="5">
 <editorsettings>
  <export target="map.json" format="json"/>
 </editorsettings>
 <tileset firstgid="1" name="base" tilewidth="64" tileheight="64" tilecount="54" columns="9">
  <image source="../../../personal/coding/raylib/cameraMovement/maps/tileset.png" width="576" height="384"/>
  <tile id="12">
   <objectgroup draworder="index" id="3">
    <object id="5" x="0.0625" y="0" width="15.8125" height="63.9063"/>
   </objectgroup>
  </tile>
  <tile id="21">
   <objectgroup draworder="index" id="2">
    <object id="1" x="0.1875" y="40.25" width="63.625" height="23.5625"/>
    <object id="2" x="0.0625" y="0.125" width="15.75" height="40.125"/>
   </objectgroup>
  </tile>
  <tile id="22">
   <objectgroup draworder="index" id="2">
    <object id="1" x="0.076087" y="40.1087" width="63.7717" height="23.8043"/>
   </objectgroup>
  </tile>
  <tile id="35">
   <objectgroup draworder="index" id="2">
    <object id="3" x="8" y="4" width="48" height="56"/>
   </objectgroup>
  </tile>
  <tile id="39">
   <objectgroup draworder="index" id="2">
    <object id="4" x="4" y="0" width="56" height="60"/>
   </objectgroup>
  </tile>
  <tile id="40">
   <objectgroup draworder="index" id="2">
    <object id="1" x="8" y="0" width="48" height="60"/>
   </objectgroup>
  </tile>
  <tile id="44">
   <objectgroup draworder="index" id="2">
    <object id="1" x="12" y="4" width="40" height="56"/>
   </objectgroup>
  </tile>
 </tileset>
 <layer id="1" name="background" width="30" height="20">
  <data encoding="csv">
11,11,13,14,14,14,11,11,11,11,11,11,11,11,11,11,11,11,11,11,11,11,11,11,11,11,11,11,11,11,
11,11,13,14,14,14,11,11,11,11,11,11,11,11,11,11,11,11,11,7,8,8,8,8,8,8,9,11,11,11,
11,11,13,14,14,14,11,11,11,11,11,11,11,11,11,11,11,11,11,16,17,17,17,17,17,17,18,11,11,11,
11,11,13,14,14,14,11,11,11,11,11,11,11,11,11,11,11,11,11,16,17,17,17,17,17,17,18,11,11,11,
11,11,13,14,14,14,11,11,11,11,11,11,11,11,11,11,11,11,11,16,17,17,17,17,17,17,18,11,11,11,
11,11,13,14,14,14,14,14,14,14,14,14,14,14,14,14,11,11,11,16,17,17,17,17,17,17,18,11,11,11,
11,11,13,14,14,14,14,14,14,14,14,14,14,14,14,14,11,11,11,25,26,26,26,26,26,26,27,11,11,11,
11,11,13,14,14,14,14,14,14,14,14,14,14,14,14,14,11,11,11,11,11,11,11,11,11,11,11,11,11,11,
11,11,22,23,23,23,23,23,23,23,23,23,14,14,14,14,11,11,11,11,11,11,11,11,11,11,11,11,11,11,
11,11,11,11,11,11,11,11,11,11,11,11,13,14,14,14,11,11,11,11,11,11,11,11,11,11,11,11,11,11,
11,11,11,11,11,11,11,11,11,11,11,11,13,14,14,14,11,11,11,11,11,11,11,11,11,11,11,11,11,11,
11,11,11,11,11,11,11,11,11,11,11,11,13,14,14,14,11,11,11,11,11,11,11,11,11,11,11,11,11,11,
11,11,11,11,11,11,11,11,11,11,11,11,13,14,14,14,11,11,11,11,11,11,11,11,11,11,11,11,11,11,
11,11,11,11,11,11,11,11,11,11,11,11,13,14,14,14,11,11,11,11,11,11,28,28,28,28,28,28,28,11,
11,11,11,11,11,11,11,11,11,11,11,11,13,14,14,14,11,11,11,11,11,11,38,38,38,38,38,38,38,11,
11,11,11,11,11,11,11,11,11,11,11,11,11,11,11,11,11,11,11,11,11,11,38,38,38,38,38,38,38,11,
11,11,11,11,11,11,11,11,11,11,11,11,11,11,11,11,11,11,11,11,11,11,38,38,38,38,38,38,38,11,
11,11,11,11,11,11,11,11,11,11,11,11,11,11,11,11,11,11,11,11,11,11,46,46,46,46,46,46,46,11,
11,11,11,11,11,11,11,11,11,11,11,11,11,11,11,11,11,11,11,11,11,11,11,11,11,11,11,11,11,11,
11,11,11,11,11,11,11,11,11,11,11,11,11,11,11,11,11,11,11,11,11,11,11,11,11,11,11,11,11,11
</data>
 </layer>
 <layer id="3" name="lowtree" width="30" height="20">
  <data encoding="csv">
0,0,0,0,0,0,0,0,36,0,0,0,0,0,0,0,0,0,0,0,0,0,0,0,0,0,0,0,0,0,
0,0,0,0,0,0,0,0,36,0,0,0,0,0,36,36,0,0,0,0,0,0,0,0,0,0,0,36,0,0,
0,0,0,0,0,0,0,0,0,36,36,36,36,0,0,0,0,0,0,0,0,0,0,0,0,0,0,0,0,0,
0,0,0,0,0,0,0,0,0,0,36,0,0,0,0,36,36,0,0,0,0,0,0,0,0,0,0,0,0,0,
0,0,0,0,0,0,0,40,40,0,0,0,0,0,0,0,0,0,0,0,0,0,0,0,0,0,0,0,0,0,
0,0,0,0,0,0,0,0,0,0,0,0,0,0,0,0,0,0,0,0,0,0,0,0,0,0,0,0,0,0,
0,0,0,0,0,0,0,0,0,0,0,0,0,0,0,0,40,0,0,0,0,0,0,0,0,0,0,0,0,0,
0,0,0,0,0,0,0,0,0,0,0,0,0,0,0,0,0,0,0,0,0,0,0,0,0,0,0,0,0,0,
0,0,0,0,0,0,0,0,0,0,0,0,0,0,0,0,40,0,0,36,0,0,0,0,0,36,0,0,0,0,
36,0,0,0,0,0,0,36,0,0,0,0,0,0,0,0,0,0,0,0,36,36,0,0,36,36,36,0,0,0,
0,36,0,36,0,36,0,0,0,36,36,0,0,0,0,0,0,0,0,0,0,36,0,0,0,0,36,0,0,0,
0,0,0,36,0,0,0,0,0,36,0,0,0,0,0,0,40,0,0,0,0,0,0,0,0,0,36,0,0,0,
0,0,0,0,0,0,0,0,0,0,0,0,0,0,0,0,0,0,36,36,36,0,0,0,0,0,0,0,0,0,
36,0,0,0,36,36,0,0,0,36,0,0,0,0,0,0,0,0,0,0,0,0,0,0,0,0,0,0,0,0,
0,0,0,0,0,0,0,0,0,0,0,0,0,0,0,0,0,0,0,0,0,0,0,0,0,0,0,0,0,0,
0,0,0,36,0,0,0,36,36,0,0,0,0,0,36,0,0,0,0,0,0,0,0,0,0,0,0,0,0,0,
0,0,0,36,0,0,0,0,0,0,0,0,36,36,0,0,36,0,0,0,0,0,0,0,0,0,0,0,0,0,
36,0,0,36,0,36,36,0,0,0,36,0,0,0,0,0,0,0,0,0,0,0,0,0,0,0,0,0,0,0,
0,0,0,0,0,0,0,0,0,0,0,0,0,0,0,0,0,0,0,0,0,0,0,0,0,0,0,0,0,0,
0,36,36,0,0,0,36,0,0,0,0,0,0,0,0,0,0,0,0,0,0,0,0,0,0,0,0,0,0,0
</data>
 </layer>
 <layer id="2" name="hightree" width="30" height="20">
  <data encoding="csv">
0,0,0,0,0,0,0,0,0,0,0,0,0,0,0,0,0,0,0,0,0,0,0,0,0,0,0,0,0,0,
0,0,0,0,0,0,0,0,0,0,0,0,0,0,0,0,0,0,0,0,0,0,0,0,0,0,0,0,0,0,
0,0,0,0,0,0,0,0,0,0,0,0,0,0,0,0,0,0,0,0,0,0,0,0,0,0,0,0,0,0,
0,0,0,0,0,0,0,31,31,0,0,0,0,0,0,0,0,0,0,0,0,0,0,0,0,0,0,0,0,0,
0,0,0,0,0,0,0,0,0,0,0,0,0,0,0,0,0,0,0,0,0,0,0,0,0,0,0,0,0,0,
0,0,0,0,0,0,0,0,0,0,0,0,0,0,0,0,31,0,0,0,0,0,0,0,0,0,0,0,0,0,
0,0,0,0,0,0,0,0,0,0,0,0,0,0,0,0,0,0,0,0,0,0,0,0,0,0,0,0,0,0,
0,0,0,0,0,0,0,0,0,0,0,0,0,0,0,0,31,0,0,0,0,0,0,0,0,0,0,0,0,0,
0,0,0,0,0,0,0,0,0,0,0,0,0,0,0,0,0,0,0,0,0,0,0,0,0,0,0,0,0,0,
0,0,0,0,0,0,0,0,0,0,0,0,0,0,0,0,0,0,0,0,0,0,0,0,0,0,0,0,0,0,
0,0,0,0,0,0,0,0,0,0,0,0,0,0,0,0,31,0,0,0,0,0,0,0,0,0,0,0,0,0,
0,0,0,0,0,0,0,0,0,0,0,0,0,0,0,0,0,0,0,0,0,0,0,0,0,0,0,0,0,0,
0,0,0,0,0,0,0,0,0,0,0,0,0,0,0,0,0,0,0,0,0,0,0,0,0,0,0,0,0,0,
0,0,0,0,0,0,0,0,0,0,0,0,0,0,0,0,0,0,0,0,0,0,0,0,0,0,0,0,0,0,
0,0,0,0,0,0,0,0,0,0,0,0,0,0,0,0,0,0,0,0,0,0,0,0,0,0,0,0,0,0,
0,0,0,0,0,0,0,0,0,0,0,0,0,0,0,0,0,0,0,0,0,0,0,0,0,0,0,0,0,0,
0,0,0,0,0,0,0,0,0,0,0,0,0,0,0,0,0,0,0,0,0,0,0,0,0,0,0,0,0,0,
0,0,0,0,0,0,0,0,0,0,0,0,0,0,0,0,0,0,0,0,0,0,0,0,0,0,0,0,0,0,
0,0,0,0,0,0,0,0,0,0,0,0,0,0,0,0,0,0,0,0,0,0,0,0,0,0,0,0,0,0,
0,0,0,0,0,0,0,0,0,0,0,0,0,0,0,0,0,0,0,0,0,0,0,0,0,0,0,0,0,0
</data>
 </layer>
 <objectgroup id="5" name="spawn">
  <object id="1" name="player_spawn" type="spawnpoint" x="860" y="940">
   <point/>
  </object>
  <object id="3" name="leftMap" type="teleport" x="0" y="894" width="28" height="192">
   <properties>
    <property name="side" value="left"/>
   </properties>
  </object>
 </objectgroup>
</map>
